app/client/src/assets/icons/blueprintjs/16px/helper-management.svg

<svg xmlns="http://www.w3.org/2000/svg" xml:space="preserve" viewBox="0 0 16 16"><path d="M13 5h-2v2h2V5zm0 6h-2v2h2v-2zm0-3h-2v2h2V8zm2-8H1C.4 0 0 .4 0 1v14c0 .6.4 1 1 1h14c.6 0 1-.4 1-1V1c0-.6-.4-1-1-1zm-1 14H2V2h12v12zm-7-3H5v2h2v-2zm3 0H8v2h2v-2z"/></svg>

<?xml version="1.0" encoding="utf-8"?>
<!-- Generator: Adobe Illustrator 17.1.0, SVG Export Plug-In . SVG Version: 6.00 Build 0)  -->
<!DOCTYPE svg PUBLIC "-//W3C//DTD SVG 1.1//EN" "http://www.w3.org/Graphics/SVG/1.1/DTD/svg11.dtd">
<svg version="1.1" id="Layer_1" xmlns:sketch="http://www.bohemiancoding.com/sketch/ns"
	 xmlns="http://www.w3.org/2000/svg" xmlns:xlink="http://www.w3.org/1999/xlink" x="0px" y="0px" viewBox="0 0 16 16"
	 enable-background="new 0 0 16 16" xml:space="preserve">
<title>Shape</title>
<desc>Created with Sketch.</desc>
<g id="Page-1" sketch:type="MSPage">
	<g id="Artboard-1" sketch:type="MSArtboardGroup">
		<path id="Shape" sketch:type="MSShapeGroup" d="M13,5h-2v2h2V5L13,5z M13,11h-2v2h2V11L13,11z M13,8h-2v2h2V8L13,8z M15,0H1
			C0.4,0,0,0.4,0,1v14c0,0.6,0.4,1,1,1h14c0.6,0,1-0.4,1-1V1C16,0.4,15.6,0,15,0L15,0z M14,14H2V2h12V14L14,14z M7,11H5v2h2V11L7,11
			z M10,11H8v2h2V11L10,11z"/>
	</g>
</g>
</svg>
